; generated by Slic3r 1.0.0RC1 on 2013-11-24 at 14:19:08

; layer_height = .15
; perimeters = 3
; top_solid_layers = 4
; bottom_solid_layers = 3
; fill_density = 0.3
; perimeter_speed = 60
; infill_speed = 60
; travel_speed = 150
; nozzle_diameter = 0.25
; filament_diameter = 2.9
; extrusion_multiplier = 0.95
; perimeters extrusion width = 0.35mm
; infill extrusion width = 0.40mm
; solid infill extrusion width = 0.35mm
; top infill extrusion width = 0.35mm
; first layer extrusion width = 0.40mm

G21 ; set units to millimeters
M104 S240 ; set temperature
G92 E0; reset E count in case manual extrusion screwed up count
M106 S0; turn off the fan incase the last print failed
G28 ; home all axes
M92 X63.031097657 ; calibrate X (GSG value = 64.8592)
M92 Y62.89205630 ; calibrate Y (GSG value = 64.8592)
M92 Z2280.77719567 ; calibrate Z (GSG value = 2387.0719)
M92 E547.1154 ; calibrate E (GSG value = 569)
M140 S95 ; set bed temperature to 95 C... printrbot maxes out around 89 C
G1 E2.0 ; prime extruder 
G92 E0 ; zero extruder length
M109 S240 ; wait for temperature to be reached
G90 ; use absolute coordinates
G92 E0
M82 ; use absolute distances for extrusion
G1 F600.000 E-0.80000
G1 Z0.450 F9000.000
G92 E0
G1 X62.297 Y62.488 F9000.000
G1 Z0.150 F9000.000
G1 E0.80200 F600.000
G1 X63.317 Y61.648 E0.81249 F1800.000
G1 X64.477 Y61.028 E0.82292
G1 X65.747 Y60.638 E0.83346
G1 X67.057 Y60.508 E0.84391
G1 X86.077 Y60.508 E0.99484
G1 X87.387 Y60.638 E1.00528
G1 X88.657 Y61.028 E1.01582
G1 X89.817 Y61.648 E1.02626
G1 X90.837 Y62.488 E1.03675
G1 X117.697 Y89.348 E1.33817
G1 X118.537 Y90.368 E1.34865
G1 X119.157 Y91.528 E1.35909
G1 X119.547 Y92.798 E1.36963
G1 X119.677 Y94.108 E1.38008
G1 X119.677 Y112.748 E1.52799
G1 X119.547 Y114.058 E1.53843
G1 X119.157 Y115.328 E1.54898
G1 X118.537 Y116.488 E1.55941
G1 X117.697 Y117.508 E1.56990
G1 X116.677 Y118.348 E1.58038
G1 X115.517 Y118.968 E1.59082
G1 X114.247 Y119.358 E1.60136
G1 X112.937 Y119.488 E1.61181
G1 X67.057 Y119.488 E1.97587
G1 X65.747 Y119.358 E1.98632
G1 X64.477 Y118.968 E1.99686
G1 X63.317 Y118.348 E2.00729
G1 X62.297 Y117.508 E2.01778
G1 X61.457 Y116.488 E2.02827
G1 X60.837 Y115.328 E2.03870
G1 X60.447 Y114.058 E2.04924
G1 X60.317 Y112.748 E2.05969
G1 X60.317 Y67.248 E2.42074
G1 X60.447 Y65.938 E2.43118
G1 X60.837 Y64.668 E2.44173
G1 X61.457 Y63.508 E2.45216
G1 X62.262 Y62.530 E2.46221
G1 X62.557 Y62.748 F9000.000
G1 X63.517 Y61.958 E2.47207 F1800.000
G1 X64.617 Y61.368 E2.48198
G1 X65.817 Y60.998 E2.49194
G1 X67.057 Y60.878 E2.50183
G1 X86.077 Y60.878 E2.65276
G1 X87.317 Y60.998 E2.66264
G1 X88.517 Y61.368 E2.67261
G1 X89.617 Y61.958 E2.68251
G1 X90.577 Y62.748 E2.69238
G1 X117.437 Y89.608 E2.99380
G1 X118.227 Y90.568 E3.00366
G1 X118.817 Y91.668 E3.01357
G1 X119.187 Y92.868 E3.02353
G1 X119.307 Y94.108 E3.03342
G1 X119.307 Y112.748 E3.18133
G1 X119.187 Y113.988 E3.19121
G1 X118.817 Y115.188 E3.20118
G1 X118.227 Y116.288 E3.21108
G1 X117.437 Y117.248 E3.22095
G1 X116.477 Y118.038 E3.23081
G1 X115.377 Y118.628 E3.24072
G1 X114.177 Y118.998 E3.25068
G1 X112.937 Y119.118 E3.26057
G1 X67.057 Y119.118 E3.62463
G1 X65.817 Y118.998 E3.63451
G1 X64.617 Y118.628 E3.64448
G1 X63.517 Y118.038 E3.65438
G1 X62.557 Y117.248 E3.66425
G1 X61.767 Y116.288 E3.67412
G1 X61.177 Y115.188 E3.68402
G1 X60.807 Y113.988 E3.69398
G1 X60.687 Y112.748 E3.70387
G1 X60.687 Y67.248 E4.06492
G1 X60.807 Y66.008 E4.07480
G1 X61.177 Y64.808 E4.08477
G1 X61.767 Y63.708 E4.09467
G1 X62.522 Y62.790 E4.10410
G1 X63.517 Y61.958 F7200.000 E4.00138
G1 X64.617 Y61.368 F7200.000 E3.90257
G1 X65.817 Y60.998 F7200.000 E3.80315
G1 X67.057 Y60.878 F7200.000 E3.70453
G1 X71.609 Y60.878 F7200.000 E3.34410
G1 F600.000 E3.30410
G1 Z0.450 F9000.000
G92 E0
G1 X67.992 Y68.183 F9000.000
G1 Z0.150 F9000.000
G1 E0.80200 F600.000
M204 S400
G1 X85.692 Y68.183 E0.94245 F1800.000
G1 X112.008 Y94.499 E1.23776
G1 X112.008 Y111.817 E1.37518
G1 X67.992 Y111.817 E1.72444
G1 X67.992 Y68.238 E2.07024
M204 S400
G1 X77.592 Y68.209 F7200.000 E1.31024
G1 F600.000 E1.27024
G1 Z0.450 F9000.000
G92 E0
G1 X64.057 Y66.005 F9000.000
G1 X112.375 Y112.185 F9000.000
G1 Z0.150 F9000.000
G1 E0.80200 F600.000
M204 S400
G1 X67.625 Y112.185 E1.15710 F1800.000
G1 X67.625 Y67.815 E1.50918
G1 X85.844 Y67.815 E1.65375
G1 X112.375 Y94.347 E1.95148
G1 X112.375 Y112.129 E2.09259
M204 S400
G1 X112.743 Y112.552 F9000.000
M204 S400
G1 X67.257 Y112.552 E2.45353 F1800.000
G1 X67.257 Y67.448 E2.81144
G1 X85.996 Y67.448 E2.96014
G1 X112.743 Y94.195 E3.26029
G1 X112.743 Y112.497 E3.40552
M204 S400
G1 X112.425 Y112.368 F9000.000
G1 X102.825 Y112.408 F7200.000 E2.64552
G1 F600.000 E2.60552
G1 Z0.450 F9000.000
G92 E0
G1 X112.443 Y112.252 F9000.000
G1 X68.277 Y111.568 F9000.000
G1 Z0.150 F9000.000
G1 E0.80200 F600.000
M204 S400
G1 X68.241 Y111.532 E0.80241 F1800.000
G1 X68.241 Y111.011 E0.80655
G1 X68.798 Y111.568 E0.81282
G1 X69.319 Y111.568 E0.81696
G1 X68.241 Y110.490 E0.82908
G1 X68.241 Y109.969 E0.83322
G1 X69.840 Y111.568 E0.85119
G1 X70.361 Y111.568 E0.85533
G1 X68.241 Y109.448 E0.87916
G1 X68.241 Y108.927 E0.88330
G1 X70.882 Y111.568 E0.91298
G1 X71.403 Y111.568 E0.91712
G1 X68.241 Y108.406 E0.95265
G1 X68.241 Y107.885 E0.95679
G1 X71.924 Y111.568 E0.99818
G1 X72.444 Y111.568 E1.00232
G1 X68.241 Y107.365 E1.04956
G1 X68.241 Y106.844 E1.05370
G1 X72.965 Y111.568 E1.10679
G1 X73.486 Y111.568 E1.11093
G1 X68.241 Y106.323 E1.16988
G1 X68.241 Y105.802 E1.17402
G1 X74.007 Y111.568 E1.23882
G1 X74.528 Y111.568 E1.24296
G1 X68.241 Y105.281 E1.31362
G1 X68.241 Y104.760 E1.31776
G1 X75.049 Y111.568 E1.39426
G1 X75.570 Y111.568 E1.39840
G1 X68.241 Y104.239 E1.48076
G1 X68.241 Y103.718 E1.48490
G1 X76.091 Y111.568 E1.57312
G1 X76.612 Y111.568 E1.57726
G1 X68.241 Y103.198 E1.67133
G1 X68.241 Y102.677 E1.67547
G1 X77.132 Y111.568 E1.77539
G1 X77.653 Y111.568 E1.77953
G1 X68.241 Y102.156 E1.88530
G1 X68.241 Y101.635 E1.88944
G1 X78.174 Y111.568 E2.00107
G1 X78.695 Y111.568 E2.00521
G1 X68.241 Y101.114 E2.12269
G1 X68.241 Y100.593 E2.12683
G1 X79.216 Y111.568 E2.25017
G1 X79.737 Y111.568 E2.25431
G1 X68.241 Y100.072 E2.38349
G1 X68.241 Y99.551 E2.38763
G1 X80.258 Y111.568 E2.52268
G1 X80.779 Y111.568 E2.52682
G1 X68.241 Y99.030 E2.66771
G1 X68.241 Y98.510 E2.67185
G1 X81.299 Y111.568 E2.81860
G1 X81.820 Y111.568 E2.82274
G1 X68.241 Y97.989 E2.97534
G1 X68.241 Y97.468 E2.97948
G1 X82.341 Y111.568 E3.13794
G1 X82.862 Y111.568 E3.14208
G1 X68.241 Y96.947 E3.30639
G1 X68.241 Y96.426 E3.31053
G1 X83.383 Y111.568 E3.48069
G1 X83.904 Y111.568 E3.48483
G1 X68.241 Y95.905 E3.66084
G1 X68.241 Y95.384 E3.66498
G1 X84.425 Y111.568 E3.84685
G1 X84.946 Y111.568 E3.85099
G1 X68.241 Y94.863 E4.03872
G1 X68.241 Y94.342 E4.04286
G1 X85.467 Y111.568 E4.23643
G1 X85.987 Y111.568 E4.24057
G1 X68.241 Y93.822 E4.44000
G1 X68.241 Y93.301 E4.44414
G1 X86.508 Y111.568 E4.64942
G1 X87.029 Y111.568 E4.65356
G1 X68.241 Y92.780 E4.86470
G1 X68.241 Y92.259 E4.86884
G1 X87.550 Y111.568 E5.08583
G1 X88.071 Y111.568 E5.08997
G1 X68.241 Y91.738 E5.31281
G1 X68.241 Y91.217 E5.31695
G1 X88.592 Y111.568 E5.54565
G1 X89.113 Y111.568 E5.54979
G1 X68.241 Y90.696 E5.78434
G1 X68.241 Y90.175 E5.78848
G1 X89.634 Y111.568 E6.02888
G1 X90.154 Y111.568 E6.03302
G1 X68.241 Y89.655 E6.27928
G1 X68.241 Y89.134 E6.28342
G1 X90.675 Y111.568 E6.53553
G1 X91.196 Y111.568 E6.53967
G1 X68.241 Y88.613 E6.79763
G1 X68.241 Y88.092 E6.80177
G1 X91.717 Y111.568 E7.06559
G1 X92.238 Y111.568 E7.06973
G1 X68.241 Y87.571 E7.33940
G1 X68.241 Y87.050 E7.34354
G1 X92.759 Y111.568 E7.61907
G1 X93.280 Y111.568 E7.62320
G1 X68.241 Y86.529 E7.90458
G1 X68.241 Y86.008 E7.90872
G1 X93.801 Y111.568 E8.19595
G1 X94.322 Y111.568 E8.20009
G1 X68.241 Y85.487 E8.49318
G1 X68.241 Y84.967 E8.49732
G1 X94.842 Y111.568 E8.79626
G1 X95.363 Y111.568 E8.80040
G1 X68.241 Y84.446 E9.10519
G1 X68.241 Y83.925 E9.10933
G1 X95.884 Y111.568 E9.41997
G1 X96.405 Y111.568 E9.42411
G1 X68.241 Y83.404 E9.74061
G1 X68.241 Y82.883 E9.74475
G1 X96.926 Y111.568 E10.06710
G1 X97.447 Y111.568 E10.07124
G1 X68.241 Y82.362 E10.39945
G1 X68.241 Y81.841 E10.40358
G1 X97.968 Y111.568 E10.73764
G1 X98.489 Y111.568 E10.74178
G1 X68.241 Y81.320 E11.08170
G1 X68.241 Y80.800 E11.08583
G1 X99.010 Y111.568 E11.43160
G1 X99.530 Y111.568 E11.43574
G1 X68.241 Y80.279 E11.78736
G1 X68.241 Y79.758 E11.79150
G1 X100.051 Y111.568 E12.14897
G1 X100.572 Y111.568 E12.15311
G1 X68.241 Y79.237 E12.51644
G1 X68.241 Y78.716 E12.52058
G1 X101.093 Y111.568 E12.88976
G1 X101.614 Y111.568 E12.89389
G1 X68.241 Y78.195 E13.26893
G1 X68.241 Y77.674 E13.27307
G1 X102.135 Y111.568 E13.65395
G1 X102.656 Y111.568 E13.65809
G1 X68.241 Y77.153 E14.04483
G1 X68.241 Y76.632 E14.04897
G1 X103.177 Y111.568 E14.44156
G1 X103.697 Y111.568 E14.44570
G1 X68.241 Y76.112 E14.84415
G1 X68.241 Y75.591 E14.84829
G1 X104.218 Y111.568 E15.25259
G1 X104.739 Y111.568 E15.25673
G1 X68.241 Y75.070 E15.66688
G1 X68.241 Y74.549 E15.67102
G1 X105.260 Y111.568 E16.08703
G1 X105.781 Y111.568 E16.09117
G1 X68.241 Y74.028 E16.51303
G1 X68.241 Y73.507 E16.51717
G1 X106.302 Y111.568 E16.94488
G1 X106.823 Y111.568 E16.94902
G1 X68.241 Y72.986 E17.38259
G1 X68.241 Y72.465 E17.38673
G1 X107.344 Y111.568 E17.82615
G1 X107.865 Y111.568 E17.83029
G1 X68.241 Y71.945 E18.27556
G1 X68.241 Y71.424 E18.27970
G1 X108.385 Y111.568 E18.73083
G1 X108.906 Y111.568 E18.73497
G1 X68.241 Y70.903 E19.19195
G1 X68.241 Y70.382 E19.19609
G1 X109.427 Y111.568 E19.65892
G1 X109.948 Y111.568 E19.66306
G1 X68.241 Y69.861 E20.13175
G1 X68.241 Y69.340 E20.13589
G1 X110.469 Y111.568 E20.61043
G1 X110.990 Y111.568 E20.61457
G1 X68.241 Y68.819 E21.09496
G1 X68.374 Y68.432 E21.09822
G1 X111.511 Y111.568 E21.58297
G1 X111.759 Y111.296 E21.58590
G1 X68.895 Y68.432 E22.06760
G1 X69.416 Y68.432 E22.07173
G1 X111.759 Y110.775 E22.54757
G1 X111.759 Y110.255 E22.55171
G1 X69.936 Y68.432 E23.02170
G1 X70.457 Y68.432 E23.02584
G1 X111.759 Y109.734 E23.48997
G1 X111.759 Y109.213 E23.49411
G1 X70.978 Y68.432 E23.95239
G1 X71.499 Y68.432 E23.95653
G1 X111.759 Y108.692 E24.40895
G1 X111.759 Y108.171 E24.41309
G1 X72.020 Y68.432 E24.85967
G1 X72.541 Y68.432 E24.86380
G1 X111.759 Y107.650 E25.30452
G1 X111.759 Y107.129 E25.30866
G1 X73.062 Y68.432 E25.74353
G1 X73.583 Y68.432 E25.74767
G1 X111.759 Y106.608 E26.17668
G1 X111.759 Y106.087 E26.18082
G1 X74.103 Y68.432 E26.60398
G1 X74.624 Y68.432 E26.60812
G1 X111.759 Y105.567 E27.02542
G1 X111.759 Y105.046 E27.02956
G1 X75.145 Y68.432 E27.44101
G1 X75.666 Y68.432 E27.44515
G1 X111.759 Y104.525 E27.85075
G1 X111.759 Y104.004 E27.85489
G1 X76.187 Y68.432 E28.25463
G1 X76.708 Y68.432 E28.25877
G1 X111.759 Y103.483 E28.65266
G1 X111.759 Y102.962 E28.65680
G1 X77.229 Y68.432 E29.04484
G1 X77.750 Y68.432 E29.04898
G1 X111.759 Y102.441 E29.43117
G1 X111.759 Y101.920 E29.43530
G1 X78.271 Y68.432 E29.81164
G1 X78.791 Y68.432 E29.81577
G1 X111.759 Y101.400 E30.18625
G1 X111.759 Y100.879 E30.19039
G1 X79.312 Y68.432 E30.55502
G1 X79.833 Y68.432 E30.55916
G1 X111.759 Y100.358 E30.91793
G1 X111.759 Y99.837 E30.92207
G1 X80.354 Y68.432 E31.27498
G1 X80.875 Y68.432 E31.27912
G1 X111.759 Y99.316 E31.62619
G1 X111.759 Y98.795 E31.63032
G1 X81.396 Y68.432 E31.97154
G1 X81.917 Y68.432 E31.97567
G1 X111.759 Y98.274 E32.31103
G1 X111.759 Y97.753 E32.31517
G1 X82.438 Y68.432 E32.64468
G1 X82.958 Y68.432 E32.64881
G1 X111.759 Y97.232 E32.97246
G1 X111.759 Y96.712 E32.97660
G1 X83.479 Y68.432 E33.29440
G1 X84.000 Y68.432 E33.29854
G1 X111.759 Y96.191 E33.61048
G1 X111.759 Y95.670 E33.61462
G1 X84.521 Y68.432 E33.92071
G1 X85.042 Y68.432 E33.92485
G1 X111.759 Y95.149 E34.22509
G1 X111.759 Y94.628 E34.22923
G1 X85.563 Y68.432 E34.52361
M204 S400
G1 X92.351 Y75.220 F7200.000 E33.76361
G1 F600.000 E33.72361
G1 Z0.600 F9000.000
G92 E0
G1 X85.872 Y67.748 F9000.000
G1 X85.735 Y68.080 F9000.000
G1 Z0.300 F9000.000
G1 E0.80200 F600.000
M204 S400
G1 X112.111 Y94.456 E1.06639 F3600
G1 X112.111 Y111.920 E1.19018
G1 X67.889 Y111.920 E1.50362
G1 X67.889 Y68.080 E1.81436
G1 X85.685 Y68.080 E1.94050
M204 S400
G1 X92.480 Y74.862 F7200.000 E1.18050
G1 F600.000 E1.14050
G1 Z0.600 F9000.000
G92 E0
G1 X85.872 Y67.748 F9000.000
G1 X100.615 Y82.495 F9000.000
G1 Z0.300 F9000.000
G1 E0.80200 F600.000
M204 S400
G1 X112.440 Y94.320 E0.92053 F3600
G1 X112.440 Y112.249 E1.04761
G1 X67.560 Y112.249 E1.36571
G1 X67.560 Y67.751 E1.68110
G1 X85.871 Y67.751 E1.81088
G1 X100.580 Y82.460 E1.95833
M204 S400
G1 X100.731 Y82.147 F9000.000
M204 S400
G1 X112.768 Y94.184 E2.07899 F3600
G1 X112.768 Y112.577 E2.20936
G1 X67.232 Y112.577 E2.53211
G1 X67.232 Y67.423 E2.85217
G1 X86.007 Y67.423 E2.98524
G1 X100.696 Y82.112 E3.13248
M204 S400
G1 X100.646 Y82.464 F9000.000
G1 X107.547 Y89.137 F7200.000 E2.37248
G1 F600.000 E2.33248
G1 Z0.600 F9000.000
G92 E0
G1 X112.443 Y94.319 F9000.000
G1 X111.890 Y111.666 F9000.000
G1 Z0.300 F9000.000
G1 E0.80200 F600.000
M204 S400
G1 X111.857 Y111.699 E0.80233 F3600
G1 X111.391 Y111.699 E0.80564
G1 X111.890 Y111.200 E0.81065
G1 X111.890 Y110.734 E0.81396
G1 X110.925 Y111.699 E0.82366
G1 X110.459 Y111.699 E0.82697
G1 X111.890 Y110.268 E0.84134
G1 X111.890 Y109.802 E0.84465
G1 X109.993 Y111.699 E0.86371
G1 X109.527 Y111.699 E0.86702
G1 X111.890 Y109.336 E0.89076
G1 X111.890 Y108.871 E0.89407
G1 X109.062 Y111.699 E0.92249
G1 X108.596 Y111.699 E0.92580
G1 X111.890 Y108.405 E0.95890
G1 X111.890 Y107.939 E0.96221
G1 X108.130 Y111.699 E1.00000
G1 X107.664 Y111.699 E1.00331
G1 X111.890 Y107.473 E1.04577
G1 X111.890 Y107.007 E1.04908
G1 X107.198 Y111.699 E1.09623
G1 X106.732 Y111.699 E1.09954
G1 X111.890 Y106.541 E1.15137
G1 X111.890 Y106.076 E1.15468
G1 X106.267 Y111.699 E1.21119
G1 X105.801 Y111.699 E1.21450
G1 X111.890 Y105.610 E1.27569
G1 X111.890 Y105.144 E1.27900
G1 X105.335 Y111.699 E1.34487
G1 X104.869 Y111.699 E1.34818
G1 X111.890 Y104.678 E1.41873
G1 X111.890 Y104.212 E1.42204
G1 X104.403 Y111.699 E1.49728
G1 X103.937 Y111.699 E1.50059
G1 X111.890 Y103.746 E1.58051
G1 X111.890 Y103.281 E1.58382
G1 X103.472 Y111.699 E1.66842
G1 X103.006 Y111.699 E1.67173
G1 X111.890 Y102.815 E1.76101
G1 X111.890 Y102.349 E1.76432
G1 X102.540 Y111.699 E1.85828
G1 X102.074 Y111.699 E1.86159
G1 X111.890 Y101.883 E1.96023
G1 X111.890 Y101.417 E1.96354
G1 X101.608 Y111.699 E2.06687
G1 X101.142 Y111.699 E2.07018
G1 X111.890 Y100.951 E2.17818
G1 X111.890 Y100.486 E2.18149
G1 X100.677 Y111.699 E2.29418
G1 X100.211 Y111.699 E2.29749
G1 X111.890 Y100.020 E2.41486
G1 X111.890 Y99.554 E2.41817
G1 X99.745 Y111.699 E2.54022
G1 X99.279 Y111.699 E2.54353
G1 X111.890 Y99.088 E2.67026
G1 X111.890 Y98.622 E2.67357
G1 X98.813 Y111.699 E2.80499
G1 X98.347 Y111.699 E2.80830
G1 X111.890 Y98.157 E2.94439
G1 X111.890 Y97.691 E2.94770
G1 X97.882 Y111.699 E3.08848
G1 X97.416 Y111.699 E3.09179
G1 X111.890 Y97.225 E3.23725
G1 X111.890 Y96.759 E3.24056
G1 X96.950 Y111.699 E3.39070
G1 X96.484 Y111.699 E3.39401
G1 X111.890 Y96.293 E3.54883
G1 X111.890 Y95.827 E3.55214
G1 X96.018 Y111.699 E3.71164
G1 X95.552 Y111.699 E3.71495
G1 X111.890 Y95.362 E3.87913
G1 X111.890 Y94.896 E3.88245
G1 X95.087 Y111.699 E4.05131
G1 X94.621 Y111.699 E4.05462
G1 X111.819 Y94.501 E4.22746
G1 X111.586 Y94.268 E4.22980
G1 X94.155 Y111.699 E4.40497
G1 X93.689 Y111.699 E4.40828
G1 X111.353 Y94.035 E4.58580
G1 X111.120 Y93.802 E4.58814
G1 X93.223 Y111.699 E4.76800
G1 X92.757 Y111.699 E4.77131
G1 X110.887 Y93.569 E4.95351
G1 X110.654 Y93.336 E4.95585
G1 X92.292 Y111.699 E5.14039
G1 X91.826 Y111.699 E5.14370
G1 X110.421 Y93.103 E5.33058
G1 X110.188 Y92.870 E5.33292
G1 X91.360 Y111.699 E5.52214
G1 X90.894 Y111.699 E5.52545
G1 X109.955 Y92.637 E5.71701
G1 X109.722 Y92.404 E5.71935
G1 X90.428 Y111.699 E5.91325
G1 X89.962 Y111.699 E5.91656
G1 X109.490 Y92.172 E6.11281
G1 X109.257 Y91.939 E6.11515
G1 X89.497 Y111.699 E6.31373
G1 X89.031 Y111.699 E6.31704
G1 X109.024 Y91.706 E6.51797
G1 X108.791 Y91.473 E6.52031
G1 X88.565 Y111.699 E6.72357
G1 X88.099 Y111.699 E6.72688
G1 X108.558 Y91.240 E6.93249
G1 X108.325 Y91.007 E6.93483
G1 X87.633 Y111.699 E7.14277
G1 X87.168 Y111.699 E7.14608
G1 X108.092 Y90.774 E7.35637
G1 X107.859 Y90.541 E7.35871
