; generated by Slic3r 0.9.9 on 2013-04-05 at 22:39:54

; layer_height = 0.4
; perimeters = 2
; top_solid_layers = 3
; bottom_solid_layers = 3
; fill_density = 0.2
; perimeter_speed = 80
; infill_speed = 80
; travel_speed = 200
; nozzle_diameter = 0.8
; filament_diameter = 2.9
; extrusion_multiplier = 0.85
; perimeters extrusion width = 1.20mm
; infill extrusion width = 1.20mm
; solid infill extrusion width = 1.20mm
; top infill extrusion width = 1.20mm

G21 ; set units to millimeters
M107
M104 S230 ; set temperature
G92 E0; reset E count in case manual extrusion screwed up count
M106 S0; turn off the fan incase the last print failed
G28 ; home all axes
M92 X62.8868221 ; calibrate X (GSG value = 64.8592)
M92 Y62.85000 ; calibrate Y (GSG value = 64.8592)
M92 Z2276.443719 ; calibrate Z (GSG value = 2387.0719)
M92 E547.1154 ; calibrate E (GSG value = 569)
M140 S95 ; set bed temperature to 95 C... printrbot maxes out around 89 C
G1 E2.0 ; prime extruder 
G92 E0 ; zero extruder length
M109 S230 ; wait for temperature to be reached
G90 ; use absolute coordinates
G92 E0
M82 ; use absolute distances for extrusion
G1 F1800.000 E-1.00000
G1 Z0.600
G92 E0
G1 X67.129 Y65.869 F12000.000
G1 Z0.400
G1 F1800.000 E1.00000
G1 X67.819 Y65.239 F1200.000 E1.05359
G1 X69.949 Y63.489 E1.21168
G1 X70.669 Y62.959 E1.26296
G1 X72.979 Y61.449 E1.42123
G1 X73.759 Y60.999 E1.47288
G1 X76.209 Y59.759 E1.63036
G1 X77.059 Y59.389 E1.68352
G1 X79.639 Y58.429 E1.84140
G1 X80.469 Y58.169 E1.89128
G1 X83.299 Y57.449 E2.05876
G1 X84.049 Y57.309 E2.10251
G1 X86.779 Y56.929 E2.26059
G1 X87.699 Y56.849 E2.31355
G1 X90.459 Y56.779 E2.47189
G1 X91.329 Y56.809 E2.52182
G1 X94.069 Y57.029 E2.67946
G1 X94.989 Y57.159 E2.73275
G1 X97.689 Y57.689 E2.89055
G1 X98.569 Y57.909 E2.94258
G1 X101.029 Y58.679 E3.09041
G1 X102.049 Y59.039 E3.15244
G1 X104.579 Y60.149 E3.31089
G1 X105.399 Y60.569 E3.36373
G1 X107.779 Y61.949 E3.52151
G1 X108.519 Y62.439 E3.57241
G1 X110.739 Y64.069 E3.73036
G1 X111.429 Y64.629 E3.78133
G1 X113.459 Y66.489 E3.93923
G1 X114.109 Y67.159 E3.99277
G1 X115.919 Y69.239 E4.15090
G1 X116.469 Y69.949 E4.20241
G1 X118.039 Y72.209 E4.36022
G1 X118.519 Y72.989 E4.41275
G1 X119.739 Y75.249 E4.56004
G1 X120.219 Y76.249 E4.62366
G1 X121.249 Y78.799 E4.78138
G1 X121.539 Y79.639 E4.83235
G1 X122.289 Y82.289 E4.99030
G1 X122.479 Y83.159 E5.04137
G1 X122.939 Y85.879 E5.19958
G1 X123.049 Y86.799 E5.25272
G1 X123.199 Y89.549 E5.41067
G1 X123.199 Y90.449 E5.46228
G1 X123.049 Y93.199 E5.62023
G1 X122.939 Y94.129 E5.67394
G1 X122.479 Y96.839 E5.83158
G1 X122.289 Y97.699 E5.88209
G1 X121.509 Y100.429 E6.04493
G1 X121.249 Y101.189 E6.09099
G1 X120.219 Y103.739 E6.24872
G1 X119.829 Y104.559 E6.30079
G1 X118.519 Y106.989 E6.45912
G1 X118.039 Y107.779 E6.51213
G1 X116.469 Y110.039 E6.66995
G1 X115.919 Y110.749 E6.72146
G1 X114.109 Y112.829 E6.87959
G1 X113.459 Y113.499 E6.93313
G1 X111.429 Y115.359 E7.09103
G1 X110.739 Y115.919 E7.14200
G1 X108.519 Y117.549 E7.29995
G1 X107.779 Y118.039 E7.35085
G1 X105.399 Y119.419 E7.50863
G1 X104.579 Y119.839 E7.56147
G1 X102.049 Y120.949 E7.71991
G1 X101.189 Y121.269 E7.77254
G1 X98.559 Y122.089 E7.93053
G1 X97.689 Y122.299 E7.98186
G1 X94.989 Y122.829 E8.13967
G1 X94.099 Y122.959 E8.19125
G1 X91.359 Y123.189 E8.34894
G1 X90.429 Y123.209 E8.40229
G1 X87.669 Y123.129 E8.56065
G1 X86.779 Y123.059 E8.61185
G1 X84.049 Y122.679 E8.76992
G1 X83.179 Y122.509 E8.82076
G1 X80.509 Y121.839 E8.97864
G1 X79.589 Y121.549 E9.03396
G1 X77.329 Y120.699 E9.17244
G1 X76.209 Y120.229 E9.24210
G1 X73.759 Y118.989 E9.39958
G1 X72.979 Y118.539 E9.45122
G1 X70.669 Y117.029 E9.60950
G1 X69.949 Y116.499 E9.66077
G1 X67.819 Y114.749 E9.81887
G1 X67.129 Y114.119 E9.87245
G1 X65.209 Y112.139 E10.03063
G1 X64.629 Y111.469 E10.08145
G1 X62.939 Y109.299 E10.23919
G1 X62.409 Y108.539 E10.29233
G1 X60.969 Y106.189 E10.45040
G1 X60.559 Y105.419 E10.50043
G1 X59.359 Y102.899 E10.66050
G1 X59.029 Y102.059 E10.71226
G1 X58.139 Y99.459 E10.86987
G1 X57.889 Y98.589 E10.92178
G1 X57.289 Y95.899 E11.07985
G1 X57.139 Y95.009 E11.13161
G1 X56.839 Y92.269 E11.28969
G1 X56.789 Y91.369 E11.34139
G1 X56.789 Y88.619 E11.49910
G1 X56.839 Y87.719 E11.55080
G1 X57.139 Y84.979 E11.70888
G1 X57.289 Y84.089 E11.76064
G1 X57.889 Y81.399 E11.91870
G1 X58.139 Y80.499 E11.97227
G1 X58.979 Y78.069 E12.11973
G1 X59.369 Y77.069 E12.18129
G1 X60.549 Y74.579 E12.33931
G1 X60.969 Y73.799 E12.39012
G1 X62.409 Y71.449 E12.54819
G1 X62.939 Y70.689 E12.60132
G1 X64.629 Y68.519 E12.75907
G1 X65.209 Y67.849 E12.80989
G1 X67.013 Y65.989 E12.95848
G1 X67.929 Y66.649 F12000.000
G1 X68.519 Y66.099 F1200.000 E13.00474
G1 X70.649 Y64.349 E13.16284
G1 X71.279 Y63.899 E13.20724
G1 X73.589 Y62.389 E13.36551
G1 X74.269 Y61.989 E13.41076
G1 X76.719 Y60.749 E13.56824
G1 X77.449 Y60.429 E13.61395
G1 X80.029 Y59.469 E13.77183
G1 X80.749 Y59.249 E13.81501
G1 X83.549 Y58.529 E13.98081
G1 X84.199 Y58.409 E14.01872
G1 X86.929 Y58.029 E14.17680
G1 X87.729 Y57.969 E14.22281
G1 X90.489 Y57.899 E14.38115
G1 X91.239 Y57.919 E14.42418
G1 X93.979 Y58.139 E14.58182
G1 X94.779 Y58.249 E14.62814
G1 X97.479 Y58.779 E14.78594
G1 X98.239 Y58.969 E14.83087
G1 X100.749 Y59.749 E14.98161
G1 X101.599 Y60.069 E15.03370
G1 X104.129 Y61.179 E15.19214
G1 X104.839 Y61.539 E15.23780
G1 X107.219 Y62.919 E15.39558
G1 X107.859 Y63.339 E15.43948
G1 X110.079 Y64.969 E15.59743
G1 X110.679 Y65.449 E15.64150
G1 X112.709 Y67.309 E15.79940
G1 X113.269 Y67.889 E15.84564
G1 X115.079 Y69.969 E16.00377
G1 X115.549 Y70.579 E16.04794
G1 X117.119 Y72.839 E16.20576
G1 X117.539 Y73.519 E16.25159
G1 X118.789 Y75.829 E16.40223
G1 X119.189 Y76.669 E16.45558
G1 X120.219 Y79.219 E16.61331
G1 X120.469 Y79.939 E16.65702
G1 X121.219 Y82.589 E16.81497
G1 X121.379 Y83.339 E16.85895
G1 X121.839 Y86.059 E17.01716
G1 X121.929 Y86.859 E17.06333
G1 X122.079 Y89.609 E17.22128
G1 X122.079 Y90.389 E17.26601
G1 X121.929 Y93.139 E17.42396
G1 X121.839 Y93.939 E17.47013
G1 X121.379 Y96.649 E17.62778
G1 X121.219 Y97.389 E17.67120
G1 X120.449 Y100.119 E17.83387
G1 X120.219 Y100.769 E17.87342
G1 X119.189 Y103.319 E18.03114
G1 X118.849 Y104.039 E18.07681
G1 X117.539 Y106.469 E18.23513
G1 X117.119 Y107.149 E18.28097
G1 X115.549 Y109.409 E18.43879
G1 X115.079 Y110.019 E18.48295
G1 X113.269 Y112.099 E18.64108
G1 X112.709 Y112.679 E18.68732
G1 X110.679 Y114.539 E18.84522
G1 X110.079 Y115.019 E18.88929
G1 X107.859 Y116.649 E19.04724
G1 X107.219 Y117.069 E19.09115
G1 X104.839 Y118.449 E19.24893
G1 X104.129 Y118.809 E19.29458
G1 X101.599 Y119.919 E19.45303
G1 X100.859 Y120.199 E19.49841
G1 X98.229 Y121.019 E19.65640
G1 X97.479 Y121.209 E19.70077
G1 X94.779 Y121.739 E19.85857
G1 X94.009 Y121.849 E19.90318
G1 X91.269 Y122.079 E20.06088
G1 X90.459 Y122.099 E20.10734
G1 X87.699 Y122.019 E20.26570
G1 X86.929 Y121.959 E20.30999
G1 X84.199 Y121.579 E20.46807
G1 X83.449 Y121.429 E20.51194
G1 X80.779 Y120.759 E20.66981
G1 X79.989 Y120.509 E20.71733
G1 X77.679 Y119.639 E20.85890
G1 X76.719 Y119.239 E20.91854
G1 X74.269 Y117.999 E21.07602
G1 X73.589 Y117.599 E21.12127
G1 X71.279 Y116.089 E21.27954
G1 X70.649 Y115.639 E21.32394
G1 X68.519 Y113.889 E21.48204
G1 X67.929 Y113.339 E21.52830
G1 X66.009 Y111.359 E21.68648
G1 X65.509 Y110.779 E21.73040
G1 X63.819 Y108.609 E21.88814
G1 X63.359 Y107.959 E21.93381
G1 X61.919 Y105.609 E22.09187
G1 X61.559 Y104.939 E22.13549
G1 X60.369 Y102.429 E22.29480
G1 X60.079 Y101.699 E22.33985
G1 X59.189 Y99.099 E22.49746
G1 X58.979 Y98.349 E22.54212
G1 X58.379 Y95.659 E22.70019
G1 X58.249 Y94.879 E22.74554
G1 X57.949 Y92.139 E22.90362
G1 X57.909 Y91.369 E22.94784
G1 X57.909 Y88.619 E23.10556
G1 X57.949 Y87.849 E23.14978
G1 X58.249 Y85.109 E23.30786
G1 X58.379 Y84.329 E23.35321
G1 X58.979 Y81.639 E23.51127
G1 X59.199 Y80.869 E23.55720
G1 X59.979 Y78.579 E23.69594
G1 X60.379 Y77.539 E23.75985
G1 X61.559 Y75.049 E23.91787
G1 X61.919 Y74.379 E23.96149
G1 X63.359 Y72.029 E24.11956
G1 X63.819 Y71.379 E24.16523
G1 X65.509 Y69.209 E24.32297
G1 X66.009 Y68.629 E24.36689
G1 X67.813 Y66.769 E24.51548
G1 F1800.000 E23.51548
G1 Z0.600
G92 E0
G1 X82.840 Y83.618 F12000.000
G1 Z0.400
G1 F1800.000 E1.00000
G1 X84.010 Y82.512 F1200.000 E1.09233
G1 X85.348 Y81.618 E1.18466
G1 X86.818 Y80.960 E1.27700
G1 X88.377 Y80.558 E1.36933
G1 X89.984 Y80.422 E1.46181
G1 X91.644 Y80.568 E1.55740
G1 X93.257 Y81.000 E1.65315
G1 X94.770 Y81.705 E1.74890
G1 X96.137 Y82.663 E1.84465
G1 X97.318 Y83.844 E1.94039
G1 X98.275 Y85.211 E2.03614
G1 X98.981 Y86.724 E2.13189
G1 X99.413 Y88.337 E2.22763
G1 X99.558 Y89.997 E2.32323
G1 X99.423 Y91.604 E2.41572
G1 X99.021 Y93.163 E2.50805
G1 X98.363 Y94.633 E2.60038
G1 X97.469 Y95.971 E2.69271
G1 X96.363 Y97.141 E2.78504
G1 X95.076 Y98.109 E2.87737
G1 X93.646 Y98.848 E2.96971
G1 X92.112 Y99.337 E3.06204
G1 X90.518 Y99.562 E3.15437
G1 X88.909 Y99.517 E3.24670
G1 X87.330 Y99.203 E3.33903
G1 X85.826 Y98.629 E3.43136
G1 X84.439 Y97.811 E3.52370
G1 X83.209 Y96.772 E3.61603
G1 X82.170 Y95.542 E3.70836
G1 X81.352 Y94.155 E3.80069
G1 X80.778 Y92.651 E3.89302
G1 X80.464 Y91.072 E3.98535
G1 X80.419 Y89.463 E4.07769
G1 X80.644 Y87.869 E4.17002
G1 X81.133 Y86.335 E4.26235
G1 X81.872 Y84.905 E4.35468
G1 X82.739 Y83.752 E4.43743
G1 X83.674 Y84.363 F12000.000
G1 X84.707 Y83.386 F1200.000 E4.51898
G1 X85.889 Y82.596 E4.60053
G1 X87.187 Y82.016 E4.68209
G1 X88.564 Y81.660 E4.76364
G1 X89.982 Y81.541 E4.84524
G1 X91.450 Y81.669 E4.92975
G1 X92.874 Y82.051 E5.01432
G1 X94.211 Y82.674 E5.09889
G1 X95.418 Y83.520 E5.18345
G1 X96.461 Y84.562 E5.26802
G1 X97.307 Y85.770 E5.35259
G1 X97.930 Y87.107 E5.43715
G1 X98.312 Y88.531 E5.52172
G1 X98.440 Y89.999 E5.60623
G1 X98.321 Y91.417 E5.68784
G1 X97.965 Y92.794 E5.76940
G1 X97.385 Y94.092 E5.85095
G1 X96.595 Y95.274 E5.93250
G1 X95.618 Y96.307 E6.01405
G1 X94.481 Y97.163 E6.09560
G1 X93.218 Y97.815 E6.17715
G1 X91.863 Y98.247 E6.25871
G1 X90.455 Y98.446 E6.34026
G1 X89.034 Y98.406 E6.42181
G1 X87.639 Y98.128 E6.50336
G1 X86.311 Y97.621 E6.58491
G1 X85.086 Y96.899 E6.66647
G1 X83.999 Y95.981 E6.74802
G1 X83.082 Y94.895 E6.82957
G1 X82.360 Y93.670 E6.91112
G1 X81.852 Y92.342 E6.99268
G1 X81.575 Y90.947 E7.07423
G1 X81.535 Y89.526 E7.15578
G1 X81.734 Y88.118 E7.23733
G1 X82.166 Y86.763 E7.31888
G1 X82.818 Y85.499 E7.40044
G1 X83.573 Y84.497 E7.47241
G1 X83.355 Y83.296 F12000.000
G1 F1800.000 E6.47241
G1 Z0.600
G92 E0
G1 X98.073 Y68.127 F12000.000
G1 Z0.400
G1 F1800.000 E1.00000
G1 X100.514 Y69.187 F1200.000 E1.15260
G1 X102.739 Y70.472 E1.29999
G1 X104.810 Y71.994 E1.44738
G1 X106.701 Y73.735 E1.59477
G1 X108.389 Y75.673 E1.74217
G1 X109.853 Y77.785 E1.88956
G1 X111.076 Y80.045 E2.03695
G1 X112.043 Y82.426 E2.18434
G1 X112.743 Y84.899 E2.33173
G1 X113.166 Y87.434 E2.47912
G1 X113.307 Y90.000 E2.62651
G1 X113.166 Y92.566 E2.77390
G1 X112.758 Y95.011 E2.91605
G1 X112.043 Y97.574 E3.06865
G1 X111.076 Y99.955 E3.21604
G1 X109.853 Y102.215 E3.36343
G1 X108.389 Y104.327 E3.51082
G1 X106.761 Y106.196 E3.65297
G1 X104.810 Y108.006 E3.80557
G1 X102.739 Y109.528 E3.95296
G1 X100.514 Y110.813 E4.10035
G1 X98.160 Y111.845 E4.24774
G1 X95.707 Y112.612 E4.39513
G1 X93.185 Y113.105 E4.54253
G1 X90.624 Y113.317 E4.68992
G1 X88.055 Y113.247 E4.83731
G1 X85.600 Y112.906 E4.97945
G1 X83.018 Y112.263 E5.13206
G1 X80.611 Y111.362 E5.27945
G1 X78.318 Y110.201 E5.42684
G1 X76.166 Y108.795 E5.57423
G1 X74.183 Y107.162 E5.72162
G1 X72.391 Y105.320 E5.86901
G1 X70.812 Y103.291 E6.01640
G1 X69.466 Y101.102 E6.16379
G1 X68.369 Y98.778 E6.31118
G1 X67.565 Y96.434 E6.45333
G1 X66.973 Y93.839 E6.60593
G1 X66.690 Y91.285 E6.75332
G1 X66.690 Y88.715 E6.90071
G1 X66.973 Y86.161 E7.04810
G1 X67.535 Y83.653 E7.19549
G1 X68.369 Y81.222 E7.34288
G1 X69.466 Y78.898 E7.49028
G1 X70.812 Y76.709 E7.63767
G1 X72.334 Y74.753 E7.77981
G1 X74.183 Y72.838 E7.93242
G1 X76.166 Y71.205 E8.07981
G1 X78.318 Y69.799 E8.22720
G1 X80.611 Y68.638 E8.37459
G1 X83.018 Y67.737 E8.52198
G1 X85.509 Y67.106 E8.66937
G1 X88.055 Y66.753 E8.81676
G1 X90.624 Y66.683 E8.96415
G1 X93.185 Y66.895 E9.11154
G1 X95.707 Y67.388 E9.25893
G1 X97.913 Y68.078 E9.39149
G1 X98.405 Y67.064 F12000.000
G1 X98.551 Y67.110 F1200.000 E9.40026
G1 X101.017 Y68.191 E9.55470
G1 X103.350 Y69.538 E9.70915
G1 X105.519 Y71.133 E9.86359
G1 X107.501 Y72.957 E10.01803
G1 X109.269 Y74.987 E10.17247
G1 X110.804 Y77.200 E10.32691
G1 X112.085 Y79.569 E10.48135
G1 X113.099 Y82.064 E10.63579
G1 X113.832 Y84.655 E10.79023
G1 X114.275 Y87.311 E10.94468
G1 X114.423 Y90.000 E11.09912
G1 X114.275 Y92.689 E11.25356
G1 X113.832 Y95.345 E11.40800
G1 X113.099 Y97.936 E11.56244
G1 X112.085 Y100.431 E11.71688
G1 X110.804 Y102.800 E11.87132
G1 X109.269 Y105.013 E12.02577
G1 X107.601 Y106.928 E12.17144
G1 X107.501 Y107.043 E12.18021
G1 X105.519 Y108.867 E12.33465
G1 X103.350 Y110.462 E12.48909
G1 X101.017 Y111.809 E12.64353
G1 X98.551 Y112.890 E12.79797
G1 X95.981 Y113.694 E12.95241
G1 X93.338 Y114.210 E13.10685
G1 X90.807 Y114.420 E13.25253
G1 X90.655 Y114.433 E13.26130
G1 X87.963 Y114.359 E13.41574
G1 X85.295 Y113.989 E13.57018
G1 X82.685 Y113.328 E13.72462
G1 X80.163 Y112.383 E13.87906
G1 X77.760 Y111.167 E14.03350
G1 X75.506 Y109.695 E14.18794
G1 X73.427 Y107.983 E14.34238
G1 X71.549 Y106.052 E14.49683
G1 X69.895 Y103.927 E14.65127
G1 X68.485 Y101.633 E14.80571
G1 X67.336 Y99.198 E14.96015
G1 X66.511 Y96.795 E15.10582
G1 X66.461 Y96.651 E15.11459
G1 X65.872 Y94.023 E15.26903
G1 X65.576 Y91.346 E15.42347
G1 X65.576 Y88.654 E15.57792
G1 X65.872 Y85.977 E15.73236
G1 X66.461 Y83.349 E15.88680
G1 X67.336 Y80.802 E16.04124
G1 X68.485 Y78.367 E16.19568
G1 X69.895 Y76.073 E16.35012
G1 X71.455 Y74.068 E16.49579
G1 X71.549 Y73.948 E16.50456
G1 X73.427 Y72.017 E16.65900
G1 X75.506 Y70.305 E16.81345
G1 X77.760 Y68.833 E16.96789
G1 X80.163 Y67.617 E17.12233
G1 X82.685 Y66.672 E17.27677
G1 X85.295 Y66.011 E17.43121
G1 X87.963 Y65.641 E17.58565
G1 X90.655 Y65.567 E17.74009
G1 X93.338 Y65.790 E17.89453
G1 X95.981 Y66.306 E18.04898
G1 X98.246 Y67.014 E18.18506
G1 X98.439 Y67.213 F12000.000
G1 F1800.000 E17.18506
G1 Z0.600
G92 E0
G1 X100.133 Y69.902 F12000.000
G1 Z0.400
G1 F1800.000 E1.00000
G1 X110.019 Y79.788 F1200.000 E1.80989
G1 X111.244 Y82.605 E1.98782
G1 X97.404 Y68.764 E3.12164
G1 X95.149 Y68.101 E3.25776
G1 X111.886 Y84.838 E4.62883
G1 X112.238 Y86.782 E4.74323
G1 X93.172 Y67.715 E6.30514
G1 X91.424 Y67.559 E6.40675
G1 X112.419 Y88.554 E8.12659
G1 X112.487 Y90.213 E8.22280
G1 X89.787 Y67.514 E10.08233
G1 X88.238 Y67.556 E10.17208
G1 X112.403 Y91.721 E12.15166
G1 X112.248 Y93.158 E12.23534
G1 X86.829 Y67.739 E14.31764
G1 X85.453 Y67.954 E14.39833
G1 X112.021 Y94.521 E16.57474
G1 X111.706 Y95.798 E16.65092
G1 X84.183 Y68.275 E18.90560
G1 F1800.000 E17.90560
G1 Z0.600
G92 E0
G1 X95.657 Y81.340 F12000.000
G1 Z0.400
G1 F1800.000 E1.00000
G1 X82.944 Y68.627 F1200.000 E2.04144
G1 X81.786 Y69.061 E2.11306
G1 X92.754 Y80.029 E3.01155
G1 X90.818 Y79.685 E3.12543
G1 X80.655 Y69.521 E3.95800
G1 X79.598 Y70.056 E4.02660
G1 X89.218 Y79.677 E4.81469
G1 X87.818 Y79.868 E4.89654
G1 X78.557 Y70.607 E5.65519
G1 X77.595 Y71.236 E5.72179
G1 X86.553 Y80.194 E6.45565
G1 X85.453 Y80.686 E6.52544
G1 X76.634 Y71.866 E7.24795
G1 X75.761 Y72.585 E7.31344
G1 X84.434 Y81.258 E8.02391
G1 X83.483 Y81.899 E8.09032
G1 X74.888 Y73.304 E8.79442
G1 X74.087 Y74.094 E8.85960
G1 X82.665 Y82.672 E9.56228
G1 X81.911 Y83.509 E9.62755
G1 X73.303 Y74.901 E10.33273
G1 X72.572 Y75.762 E10.39814
G1 X81.228 Y84.417 E11.10718
G1 X80.677 Y85.458 E11.17538
G1 X71.876 Y76.657 E11.89636
G1 X71.218 Y77.591 E11.96252
G1 X80.207 Y86.580 E12.69891
G1 X79.838 Y87.802 E12.77286
G1 X70.612 Y78.576 E13.52863
G1 X70.033 Y79.589 E13.59619
G1 X79.641 Y89.196 E14.38324
G1 X79.648 Y90.795 E14.47586
G1 X69.523 Y80.670 E15.30531
G1 X69.034 Y81.773 E15.37518
G1 X79.965 Y92.704 E16.27062
G1 X81.262 Y95.592 E16.45402
G1 X68.628 Y82.958 E17.48901
G1 F1800.000 E16.48901
G1 Z0.600
G92 E0
G1 X74.725 Y106.561 F12000.000
G1 Z0.400
G1 F1800.000 E1.00000
G1 X74.731 Y106.567 F1200.000 E1.00048
G1 F1800.000 E0.00048
G1 Z0.600
G92 E0
G1 X79.803 Y110.047 F12000.000
G1 Z0.400
G1 F1800.000 E1.00000
