; generated by Slic3r 0.9.9 on 2013-04-05 at 22:39:06

; layer_height = 0.4
; perimeters = 2
; top_solid_layers = 3
; bottom_solid_layers = 3
; fill_density = 0.2
; perimeter_speed = 80
; infill_speed = 80
; travel_speed = 200
; nozzle_diameter = 0.8
; filament_diameter = 2.9
; extrusion_multiplier = 0.85
; perimeters extrusion width = 1.00mm
; infill extrusion width = 1.00mm
; solid infill extrusion width = 1.00mm
; top infill extrusion width = 1.00mm

G21 ; set units to millimeters
M107
M104 S230 ; set temperature
G92 E0; reset E count in case manual extrusion screwed up count
M106 S0; turn off the fan incase the last print failed
G28 ; home all axes
M92 X62.8868221 ; calibrate X (GSG value = 64.8592)
M92 Y62.85000 ; calibrate Y (GSG value = 64.8592)
M92 Z2276.443719 ; calibrate Z (GSG value = 2387.0719)
M92 E547.1154 ; calibrate E (GSG value = 569)
M140 S95 ; set bed temperature to 95 C... printrbot maxes out around 89 C
G1 E2.0 ; prime extruder 
G92 E0 ; zero extruder length
M109 S230 ; wait for temperature to be reached
G90 ; use absolute coordinates
G92 E0
M82 ; use absolute distances for extrusion
G1 F1800.000 E-1.00000
G1 Z0.600
G92 E0
G1 X67.359 Y66.089 F12000.000
G1 Z0.400
G1 F1800.000 E1.00000
G1 X68.019 Y65.489 F1200.000 E1.04394
G1 X70.149 Y63.739 E1.17975
G1 X70.839 Y63.229 E1.22202
G1 X73.149 Y61.719 E1.35798
G1 X73.909 Y61.279 E1.40125
G1 X76.359 Y60.039 E1.53653
G1 X77.169 Y59.679 E1.58019
G1 X79.749 Y58.719 E1.71581
G1 X80.549 Y58.469 E1.75710
G1 X83.049 Y57.829 E1.88424
G1 X84.089 Y57.619 E1.93651
G1 X86.819 Y57.239 E2.07230
G1 X87.709 Y57.169 E2.11628
G1 X90.469 Y57.099 E2.25230
G1 X91.299 Y57.119 E2.29320
G1 X94.039 Y57.339 E2.42862
G1 X94.929 Y57.459 E2.47286
G1 X97.629 Y57.989 E2.60842
G1 X98.469 Y58.209 E2.65120
G1 X100.969 Y58.989 E2.78022
G1 X101.919 Y59.329 E2.82993
G1 X104.449 Y60.439 E2.96603
G1 X105.239 Y60.839 E3.00966
G1 X107.619 Y62.219 E3.14519
G1 X108.329 Y62.689 E3.18714
G1 X110.549 Y64.319 E3.32283
G1 X111.219 Y64.859 E3.36522
G1 X113.249 Y66.719 E3.50086
G1 X113.869 Y67.359 E3.54476
G1 X115.679 Y69.439 E3.68060
G1 X116.209 Y70.119 E3.72307
G1 X117.779 Y72.379 E3.85864
G1 X118.239 Y73.139 E3.90241
G1 X119.459 Y75.399 E4.02893
G1 X119.929 Y76.369 E4.08203
G1 X120.959 Y78.919 E4.21752
G1 X121.239 Y79.719 E4.25928
G1 X121.989 Y82.369 E4.39496
G1 X122.169 Y83.209 E4.43728
G1 X122.629 Y85.929 E4.57319
G1 X122.729 Y86.819 E4.61731
G1 X122.879 Y89.569 E4.75299
G1 X122.879 Y90.429 E4.79536
G1 X122.729 Y93.179 E4.93104
G1 X122.629 Y94.069 E4.97516
G1 X122.169 Y96.779 E5.11058
G1 X121.989 Y97.609 E5.15242
G1 X121.209 Y100.339 E5.29230
G1 X120.959 Y101.069 E5.33031
G1 X119.929 Y103.619 E5.46580
G1 X119.559 Y104.419 E5.50922
G1 X118.249 Y106.849 E5.64522
G1 X117.779 Y107.609 E5.68925
G1 X116.209 Y109.869 E5.82482
G1 X115.679 Y110.549 E5.86729
G1 X113.869 Y112.629 E6.00313
G1 X113.249 Y113.269 E6.04703
G1 X111.219 Y115.129 E6.18267
G1 X110.549 Y115.669 E6.22506
G1 X108.329 Y117.299 E6.36074
G1 X107.619 Y117.769 E6.40269
G1 X105.239 Y119.149 E6.53823
G1 X104.449 Y119.549 E6.58185
G1 X101.919 Y120.659 E6.71796
G1 X101.099 Y120.969 E6.76115
G1 X98.469 Y121.789 E6.89687
G1 X97.629 Y121.999 E6.93953
G1 X94.929 Y122.529 E7.07508
G1 X94.069 Y122.649 E7.11786
G1 X91.329 Y122.879 E7.25332
G1 X90.439 Y122.899 E7.29718
G1 X87.679 Y122.819 E7.43321
G1 X86.819 Y122.749 E7.47572
G1 X84.089 Y122.369 E7.61151
G1 X83.249 Y122.209 E7.65363
G1 X80.579 Y121.539 E7.78925
G1 X79.699 Y121.259 E7.83474
G1 X77.299 Y120.349 E7.96120
G1 X76.359 Y119.949 E8.01152
G1 X73.909 Y118.709 E8.14680
G1 X73.149 Y118.269 E8.19007
G1 X70.839 Y116.759 E8.32603
G1 X70.149 Y116.249 E8.36830
G1 X68.019 Y114.499 E8.50411
G1 X67.359 Y113.899 E8.54805
G1 X65.439 Y111.919 E8.68392
G1 X64.879 Y111.269 E8.72619
G1 X63.189 Y109.099 E8.86169
G1 X62.679 Y108.369 E8.90557
G1 X61.239 Y106.019 E9.04135
G1 X60.839 Y105.279 E9.08279
G1 X59.649 Y102.769 E9.21964
G1 X59.319 Y101.959 E9.26273
G1 X58.429 Y99.359 E9.39811
G1 X58.199 Y98.519 E9.44102
G1 X57.599 Y95.829 E9.57680
G1 X57.449 Y94.969 E9.61981
G1 X57.149 Y92.229 E9.75560
G1 X57.109 Y91.369 E9.79801
G1 X57.109 Y88.619 E9.93349
G1 X57.149 Y87.759 E9.97591
G1 X57.449 Y85.019 E10.11170
G1 X57.599 Y84.159 E10.15471
G1 X58.199 Y81.469 E10.29049
G1 X58.439 Y80.599 E10.33495
G1 X59.279 Y78.169 E10.46162
G1 X59.659 Y77.199 E10.51294
G1 X60.839 Y74.709 E10.64869
G1 X61.239 Y73.969 E10.69013
G1 X62.679 Y71.619 E10.82591
G1 X63.189 Y70.889 E10.86978
G1 X64.879 Y68.719 E11.00528
G1 X65.439 Y68.069 E11.04755
G1 X67.259 Y66.193 E11.17635
G1 X68.049 Y66.759 F12000.000
G1 X68.619 Y66.219 F1200.000 E11.21504
G1 X70.749 Y64.469 E11.35084
G1 X71.359 Y64.029 E11.38790
G1 X73.669 Y62.519 E11.52386
G1 X74.339 Y62.129 E11.56205
G1 X76.789 Y60.889 E11.69733
G1 X77.499 Y60.579 E11.73550
G1 X80.079 Y59.619 E11.87112
G1 X80.779 Y59.399 E11.90726
G1 X83.279 Y58.759 E12.03440
G1 X84.219 Y58.569 E12.08164
G1 X86.949 Y58.189 E12.21744
G1 X87.729 Y58.129 E12.25598
G1 X90.489 Y58.059 E12.39199
G1 X91.229 Y58.079 E12.42846
G1 X93.969 Y58.299 E12.56388
G1 X94.749 Y58.399 E12.60262
G1 X97.449 Y58.929 E12.73818
G1 X98.189 Y59.119 E12.77582
G1 X100.649 Y59.889 E12.90281
G1 X101.539 Y60.209 E12.94940
G1 X104.069 Y61.319 E13.08551
G1 X104.759 Y61.669 E13.12363
G1 X107.139 Y63.049 E13.25916
G1 X107.769 Y63.459 E13.29620
G1 X109.989 Y65.089 E13.43188
G1 X110.569 Y65.569 E13.46897
G1 X112.599 Y67.429 E13.60461
G1 X113.149 Y67.989 E13.64328
G1 X114.959 Y70.069 E13.77912
G1 X115.419 Y70.669 E13.81636
G1 X116.989 Y72.929 E13.95193
G1 X117.399 Y73.599 E13.99063
G1 X118.739 Y76.069 E14.12907
G1 X119.039 Y76.719 E14.16434
G1 X120.069 Y79.269 E14.29983
G1 X120.309 Y79.989 E14.33722
G1 X121.059 Y82.639 E14.47290
G1 X121.229 Y83.369 E14.50982
G1 X121.689 Y86.089 E14.64573
G1 X121.779 Y86.869 E14.68441
G1 X121.929 Y89.619 E14.82009
G1 X121.929 Y90.379 E14.85753
G1 X121.779 Y93.129 E14.99321
G1 X121.689 Y93.909 E15.03189
G1 X121.229 Y96.619 E15.16731
G1 X121.069 Y97.349 E15.20413
G1 X120.369 Y99.829 E15.33108
G1 X120.069 Y100.719 E15.37735
G1 X119.039 Y103.269 E15.51284
G1 X118.709 Y103.959 E15.55052
G1 X117.399 Y106.389 E15.68652
G1 X116.989 Y107.059 E15.72522
G1 X115.419 Y109.319 E15.86079
G1 X114.959 Y109.919 E15.89804
G1 X113.149 Y111.999 E16.03387
G1 X112.599 Y112.559 E16.07254
G1 X110.569 Y114.419 E16.20818
G1 X109.989 Y114.899 E16.24527
G1 X107.769 Y116.529 E16.38096
G1 X107.139 Y116.939 E16.41799
G1 X104.759 Y118.319 E16.55352
G1 X104.069 Y118.669 E16.59164
G1 X101.539 Y119.779 E16.72775
G1 X100.809 Y120.049 E16.76609
G1 X98.179 Y120.869 E16.90181
G1 X97.449 Y121.059 E16.93898
G1 X94.749 Y121.589 E17.07453
G1 X93.989 Y121.689 E17.11229
G1 X91.249 Y121.919 E17.24776
G1 X90.469 Y121.939 E17.28620
G1 X87.709 Y121.859 E17.42223
G1 X86.949 Y121.799 E17.45978
G1 X84.219 Y121.419 E17.59557
G1 X83.489 Y121.279 E17.63219
G1 X80.819 Y120.609 E17.76781
G1 X80.039 Y120.369 E17.80801
G1 X77.639 Y119.459 E17.93447
G1 X76.789 Y119.099 E17.97994
G1 X74.339 Y117.859 E18.11522
G1 X73.669 Y117.469 E18.15341
G1 X71.359 Y115.959 E18.28937
G1 X70.749 Y115.519 E18.32643
G1 X68.619 Y113.769 E18.46224
G1 X68.049 Y113.229 E18.50092
G1 X66.129 Y111.249 E18.63679
G1 X65.629 Y110.679 E18.67415
G1 X63.939 Y108.509 E18.80965
G1 X63.499 Y107.869 E18.84791
G1 X62.059 Y105.519 E18.98369
G1 X61.699 Y104.869 E19.02030
G1 X60.599 Y102.549 E19.14679
G1 X60.229 Y101.649 E19.19473
G1 X59.339 Y99.049 E19.33012
G1 X59.129 Y98.309 E19.36801
G1 X58.529 Y95.619 E19.50379
G1 X58.399 Y94.869 E19.54129
G1 X58.099 Y92.129 E19.67709
G1 X58.059 Y91.369 E19.71458
G1 X58.059 Y88.619 E19.85006
G1 X58.099 Y87.859 E19.88755
G1 X58.399 Y85.119 E20.02335
G1 X58.529 Y84.369 E20.06085
G1 X59.129 Y81.679 E20.19663
G1 X59.339 Y80.919 E20.23547
G1 X60.179 Y78.489 E20.36214
G1 X60.519 Y77.609 E20.40861
G1 X61.699 Y75.119 E20.54436
G1 X62.059 Y74.469 E20.58097
G1 X63.499 Y72.119 E20.71675
G1 X63.939 Y71.479 E20.75501
G1 X65.629 Y69.309 E20.89051
G1 X66.129 Y68.739 E20.92787
G1 X67.949 Y66.863 E21.05667
G1 F1800.000 E20.05667
G1 Z0.600
G92 E0
G1 X83.016 Y83.776 F12000.000
G1 Z0.400
G1 F1800.000 E1.00000
G1 X84.157 Y82.697 F1200.000 E1.07736
G1 X85.463 Y81.825 E1.15471
G1 X86.896 Y81.183 E1.23207
G1 X88.416 Y80.791 E1.30942
G1 X89.983 Y80.659 E1.38689
G1 X91.603 Y80.801 E1.46700
G1 X93.176 Y81.222 E1.54721
G1 X94.652 Y81.910 E1.62743
G1 X95.985 Y82.844 E1.70765
G1 X97.137 Y83.996 E1.78786
G1 X98.071 Y85.329 E1.86808
G1 X98.759 Y86.805 E1.94830
G1 X99.180 Y88.378 E2.02852
G1 X99.322 Y89.998 E2.10862
G1 X99.190 Y91.565 E2.18609
G1 X98.798 Y93.085 E2.26345
G1 X98.156 Y94.518 E2.34081
G1 X97.284 Y95.824 E2.41816
G1 X96.205 Y96.965 E2.49552
G1 X94.951 Y97.909 E2.57287
G1 X93.556 Y98.630 E2.65023
G1 X92.060 Y99.107 E2.72758
G1 X90.505 Y99.326 E2.80494
G1 X88.935 Y99.282 E2.88230
G1 X87.395 Y98.976 E2.95965
G1 X85.928 Y98.416 E3.03701
G1 X84.576 Y97.618 E3.11436
G1 X83.376 Y96.605 E3.19172
G1 X82.363 Y95.405 E3.26908
G1 X81.565 Y94.053 E3.34643
G1 X81.005 Y92.586 E3.42379
G1 X80.699 Y91.046 E3.50114
G1 X80.655 Y89.476 E3.57850
G1 X80.874 Y87.921 E3.65586
G1 X81.351 Y86.425 E3.73321
G1 X82.072 Y85.030 E3.81057
G1 X82.930 Y83.890 E3.88085
G1 X83.732 Y84.416 F12000.000
G1 X84.756 Y83.448 F1200.000 E3.95026
G1 X85.927 Y82.665 E4.01966
G1 X87.213 Y82.090 E4.08906
G1 X88.577 Y81.738 E4.15846
G1 X89.982 Y81.620 E4.22790
G1 X91.436 Y81.747 E4.29983
G1 X92.847 Y82.125 E4.37180
G1 X94.171 Y82.742 E4.44376
G1 X95.368 Y83.580 E4.51573
G1 X96.401 Y84.613 E4.58770
G1 X97.239 Y85.810 E4.65966
G1 X97.856 Y87.134 E4.73163
G1 X98.234 Y88.545 E4.80360
G1 X98.361 Y89.999 E4.87553
G1 X98.243 Y91.404 E4.94497
G1 X97.891 Y92.768 E5.01437
G1 X97.316 Y94.054 E5.08377
G1 X96.533 Y95.225 E5.15317
G1 X95.565 Y96.249 E5.22258
G1 X94.440 Y97.096 E5.29198
G1 X93.188 Y97.742 E5.36138
G1 X91.846 Y98.170 E5.43078
G1 X90.451 Y98.367 E5.50018
G1 X89.043 Y98.328 E5.56958
G1 X87.661 Y98.053 E5.63898
G1 X86.345 Y97.550 E5.70839
G1 X85.132 Y96.835 E5.77779
G1 X84.055 Y95.926 E5.84719
G1 X83.146 Y94.849 E5.91659
G1 X82.431 Y93.636 E5.98599
G1 X81.928 Y92.320 E6.05540
G1 X81.653 Y90.938 E6.12480
G1 X81.614 Y89.530 E6.19420
G1 X81.811 Y88.135 E6.26360
G1 X82.239 Y86.793 E6.33300
G1 X82.885 Y85.541 E6.40241
G1 X83.646 Y84.530 E6.46474
G1 X83.459 Y83.499 F12000.000
G1 F1800.000 E5.46474
G1 Z0.600
G92 E0
G1 X69.259 Y101.214 F12000.000
G1 Z0.400
G1 F1800.000 E1.00000
G1 X68.151 Y98.867 F1200.000 E1.12789
G1 X67.342 Y96.510 E1.25064
G1 X66.740 Y93.878 E1.38364
G1 X66.455 Y91.298 E1.51154
G1 X66.455 Y88.702 E1.63943
G1 X66.740 Y86.122 E1.76732
G1 X67.308 Y83.589 E1.89521
G1 X68.151 Y81.133 E2.02310
G1 X69.259 Y78.786 E2.15099
G1 X70.618 Y76.574 E2.27889
G1 X72.148 Y74.608 E2.40163
G1 X74.023 Y72.665 E2.53464
G1 X76.027 Y71.014 E2.66253
G1 X78.200 Y69.595 E2.79042
G1 X80.516 Y68.422 E2.91831
G1 X82.947 Y67.512 E3.04621
G1 X85.778 Y66.795 E3.19007
G1 X85.778 Y66.831 E3.19184
G1 X88.035 Y66.518 E3.30410
G1 X90.630 Y66.447 E3.43200
G1 X93.217 Y66.661 E3.55989
G1 X95.765 Y67.159 E3.68778
G1 X98.243 Y67.934 E3.81567
G1 X100.620 Y68.977 E3.94356
G1 X102.868 Y70.275 E4.07145
G1 X104.960 Y71.812 E4.19934
G1 X106.870 Y73.570 E4.32724
G1 X108.575 Y75.528 E4.45513
G1 X110.054 Y77.661 E4.58302
G1 X111.290 Y79.944 E4.71091
G1 X112.267 Y82.349 E4.83880
G1 X112.973 Y84.847 E4.96669
G1 X113.400 Y87.408 E5.09459
G1 X113.543 Y90.000 E5.22248
G1 X113.400 Y92.592 E5.35037
G1 X112.973 Y95.153 E5.47826
G1 X112.267 Y97.651 E5.60615
G1 X111.290 Y100.056 E5.73404
G1 X110.054 Y102.339 E5.86194
G1 X108.575 Y104.472 E5.98983
G1 X106.870 Y106.430 E6.11772
G1 X104.960 Y108.188 E6.24561
G1 X102.868 Y109.725 E6.37350
G1 X100.620 Y111.023 E6.50139
G1 X98.243 Y112.066 E6.62928
G1 X95.765 Y112.841 E6.75718
G1 X93.320 Y113.319 E6.87992
G1 X90.630 Y113.553 E7.01293
G1 X88.035 Y113.482 E7.14082
G1 X85.464 Y113.125 E7.26871
G1 X82.947 Y112.488 E7.39660
G1 X80.516 Y111.578 E7.52450
G1 X78.200 Y110.405 E7.65239
G1 X76.027 Y108.986 E7.78028
G1 X74.023 Y107.335 E7.90817
G1 X72.213 Y105.475 E8.03606
G1 X70.618 Y103.426 E8.16395
G1 X69.334 Y101.337 E8.28477
G1 X68.498 Y101.805 F12000.000
G1 X68.416 Y101.671 F1200.000 E8.29252
G1 X67.263 Y99.227 E8.42561
G1 X66.386 Y96.672 E8.55871
G1 X65.795 Y94.036 E8.69180
G1 X65.498 Y91.351 E8.82490
G1 X65.498 Y88.649 E8.95799
G1 X65.795 Y85.964 E9.09108
G1 X66.386 Y83.328 E9.22418
G1 X67.263 Y80.773 E9.35727
G1 X68.416 Y78.329 E9.49037
G1 X69.830 Y76.028 E9.62346
G1 X71.393 Y74.020 E9.74881
G1 X71.490 Y73.896 E9.75656
G1 X73.374 Y71.960 E9.88965
G1 X75.459 Y70.242 E10.02275
G1 X77.721 Y68.764 E10.15584
G1 X80.131 Y67.545 E10.28893
G1 X82.661 Y66.597 E10.42203
G1 X85.280 Y65.934 E10.55512
G1 X87.956 Y65.563 E10.68822
G1 X90.657 Y65.489 E10.82131
G1 X93.349 Y65.712 E10.95441
G1 X96.001 Y66.230 E11.08750
G1 X98.579 Y67.036 E11.22059
G1 X101.053 Y68.121 E11.35369
G1 X103.393 Y69.472 E11.48678
G1 X105.569 Y71.072 E11.61988
G1 X107.557 Y72.902 E11.75297
G1 X109.331 Y74.939 E11.88607
G1 X110.871 Y77.159 E12.01916
G1 X112.157 Y79.535 E12.15226
G1 X113.173 Y82.038 E12.28535
G1 X113.908 Y84.638 E12.41844
G1 X114.353 Y87.303 E12.55154
G1 X114.502 Y90.000 E12.68463
G1 X114.353 Y92.697 E12.81773
G1 X113.908 Y95.362 E12.95082
G1 X113.173 Y97.962 E13.08392
G1 X112.216 Y100.319 E13.20926
G1 X112.157 Y100.465 E13.21701
G1 X110.871 Y102.841 E13.35010
G1 X109.331 Y105.061 E13.48320
G1 X107.557 Y107.098 E13.61629
G1 X105.569 Y108.928 E13.74939
G1 X103.393 Y110.528 E13.88248
G1 X101.053 Y111.879 E14.01558
G1 X98.579 Y112.964 E14.14867
G1 X96.001 Y113.770 E14.28176
G1 X93.349 Y114.288 E14.41486
G1 X90.657 Y114.511 E14.54795
G1 X87.956 Y114.437 E14.68105
G1 X85.280 Y114.066 E14.81414
G1 X82.661 Y113.403 E14.94724
G1 X80.131 Y112.455 E15.08033
G1 X77.721 Y111.236 E15.21343
G1 X75.459 Y109.758 E15.34652
G1 X73.374 Y108.040 E15.47961
G1 X71.490 Y106.104 E15.61271
G1 X69.830 Y103.972 E15.74580
G1 X68.573 Y101.927 E15.86408
G1 X68.573 Y101.666 F12000.000
G1 F1800.000 E14.86408
G1 Z0.600
G92 E0
G1 X74.488 Y106.819 F12000.000
G1 Z0.400
G1 F1800.000 E1.00000
G1 X74.494 Y106.825 F1200.000 E1.00042
G1 F1800.000 E0.00042
G1 Z0.600
G92 E0
G1 X79.152 Y110.107 F12000.000
G1 Z0.400
G1 F1800.000 E1.00000
G1 X69.817 Y100.772 F1200.000 E1.66094
G1 X68.685 Y98.265 E1.79868
G1 X81.701 Y111.280 E2.72022
G1 X83.779 Y111.983 E2.83003
G1 X67.964 Y96.169 E3.94971
G1 X67.567 Y94.396 E4.04066
G1 X85.617 Y112.446 E5.31867
G1 X87.214 Y112.667 E5.39938
G1 X67.315 Y92.769 E6.80828
G1 X67.148 Y91.226 E6.88596
G1 X88.729 Y112.807 E8.41393
G1 X90.144 Y112.846 E8.48477
G1 X67.148 Y89.851 E10.11290
G1 X67.175 Y88.501 E10.18045
G1 X91.462 Y112.788 E11.90001
G1 X92.732 Y112.683 E11.96383
G1 X67.312 Y87.263 E13.76362
G1 X67.475 Y86.051 E13.82486
G1 X93.919 Y112.495 E15.69718
G1 X95.070 Y112.270 E15.75588
G1 X67.724 Y84.924 E17.69207
G1 X67.972 Y83.797 E17.74984
G1 X96.165 Y111.989 E19.74593
G1 X97.212 Y111.662 E19.80090
G1 X68.322 Y82.771 E21.84641
G1 X68.674 Y81.747 E21.90061
G1 X80.726 Y93.800 E22.75397
G1 X80.152 Y91.850 E22.85575
G1 X69.084 Y80.782 E23.63938
G1 X69.525 Y79.848 E23.69111
G1 X79.984 Y90.307 E24.43167
G1 X80.025 Y88.973 E24.49850
G1 X69.984 Y78.931 E25.20948
G1 X70.507 Y78.079 E25.25954
G1 X80.196 Y87.767 E25.94549
G1 X80.528 Y86.724 E26.00030
G1 X71.031 Y77.227 E26.67271
G1 X71.609 Y76.430 E26.72202
G1 X80.923 Y85.744 E27.38143
G1 X81.391 Y84.837 E27.43253
G1 X72.211 Y75.657 E28.08249
G1 X72.823 Y74.893 E28.13148
G1 X81.958 Y84.028 E28.77827
G1 X82.559 Y83.253 E28.82735
G1 X73.501 Y74.196 E29.46865
G1 X74.180 Y73.498 E29.51735
G1 X83.266 Y82.585 E30.16069
G1 X84.015 Y81.958 E30.20957
G1 X74.899 Y72.842 E30.85499
G1 X75.653 Y72.221 E30.90391
G1 X84.839 Y81.407 E31.55431
G1 X85.746 Y80.938 E31.60541
G1 X76.407 Y71.600 E32.26659
G1 X77.236 Y71.053 E32.31630
G1 X86.700 Y80.517 E32.98640
G1 X87.794 Y80.235 E33.04293
G1 X78.068 Y70.509 E33.73154
G1 X78.934 Y70.000 E33.78185
G1 X88.981 Y80.047 E34.49320
G1 X90.300 Y79.990 E34.55927
G1 X79.848 Y69.538 E35.29930
G1 X80.764 Y69.079 E35.35062
G1 X91.828 Y80.143 E36.13393
G1 X93.815 Y80.755 E36.23805
G1 X81.762 Y68.702 E37.09143
